src/icons/twitter.svg

<svg width="30" height="30" viewBox="0 0 30 30" fill="none" xmlns="http://www.w3.org/2000/svg">
<path d="M15 -0.0314941C6.71154 -0.0314941 -0.0328369 6.71101 -0.0328369 15.0004C-0.0328369 23.2898 6.71154 30.0323 15 30.0323C23.2884 30.0323 30.0328 23.2898 30.0328 15.0004C30.0328 6.71101 23.2884 -0.0314941 15 -0.0314941ZM15 29.031C7.26373 29.031 0.970288 22.7366 0.970288 15.0004C0.970288 7.26413 7.26373 0.969756 15 0.969756C22.7362 0.969756 29.0297 7.26413 29.0297 15.0004C29.0297 22.7366 22.7362 29.031 15 29.031Z" fill="rgba(93, 93, 97, 1)"/>
<path d="M23.2443 10.356C23.3483 10.1635 23.434 9.96169 23.5003 9.75319C23.5309 9.65648 23.5316 9.55273 23.502 9.45566C23.4725 9.35859 23.4143 9.27274 23.335 9.20947C23.2556 9.1462 23.159 9.10847 23.0578 9.10127C22.9566 9.09407 22.8556 9.11773 22.7681 9.16913C22.2877 9.45451 21.7677 9.66713 21.225 9.80007C20.5662 9.20548 19.7105 8.87586 18.8231 8.87476C18.3409 8.87513 17.8638 8.97285 17.4204 9.16206C16.9769 9.35128 16.5762 9.62809 16.2423 9.9759C15.9085 10.3237 15.6482 10.7354 15.4773 11.1862C15.3063 11.637 15.2282 12.1177 15.2475 12.5994C13.139 12.334 11.2137 11.2671 9.8709 9.62007C9.81945 9.55767 9.7537 9.50861 9.67923 9.47706C9.60477 9.44551 9.52379 9.4324 9.44317 9.43884C9.36256 9.44528 9.28468 9.47109 9.21617 9.51406C9.14766 9.55704 9.09054 9.61592 9.04965 9.68569C8.74217 10.2134 8.57505 10.8112 8.56421 11.4219C8.55338 12.0325 8.69921 12.6358 8.98778 13.1741C8.917 13.1861 8.84901 13.2109 8.78715 13.2473C8.71135 13.2956 8.64894 13.3622 8.60569 13.441C8.56243 13.5199 8.53972 13.6083 8.53965 13.6982C8.53965 14.7623 9.01309 15.7391 9.77621 16.4029L9.7434 16.4357C9.68579 16.5009 9.64615 16.5799 9.6284 16.6651C9.61064 16.7502 9.61538 16.8386 9.64215 16.9213C9.80128 17.4177 10.067 17.8734 10.4207 18.2564C10.7743 18.6394 11.2074 18.9404 11.6897 19.1385C10.6993 19.6216 9.59092 19.8101 8.49653 19.6813C8.38403 19.6699 8.27091 19.696 8.17489 19.7557C8.07886 19.8155 8.00536 19.9053 7.9659 20.0113C7.92801 20.1181 7.92729 20.2345 7.96388 20.3417C8.00047 20.4489 8.07221 20.5406 8.16746 20.6019C9.65529 21.5568 11.3861 22.0641 13.154 22.0635C18.9478 22.0635 22.4109 17.3573 22.4109 12.8076L22.41 12.6538C22.9715 12.2155 23.4592 11.6901 23.8546 11.0976C23.9145 11.008 23.944 10.9015 23.9386 10.7939C23.9333 10.6863 23.8934 10.5833 23.825 10.5001C23.7565 10.4169 23.6631 10.3579 23.5585 10.332C23.4539 10.3061 23.3438 10.3145 23.2443 10.356ZM21.6084 12.0013C21.5404 12.0502 21.4857 12.1154 21.4493 12.1909C21.413 12.2664 21.3961 12.3498 21.4003 12.4335C21.4059 12.5573 21.4087 12.6829 21.4087 12.8066C21.4087 16.8641 18.3215 21.0613 13.155 21.0613C12.2335 21.0617 11.3185 20.9071 10.4484 20.6038C11.4905 20.4041 12.4695 19.9572 13.3031 19.3007C13.3842 19.2367 13.4436 19.1492 13.4732 19.0502C13.5027 18.9512 13.5009 18.8455 13.4681 18.7475C13.4353 18.6495 13.373 18.564 13.2898 18.5028C13.2065 18.4416 13.1064 18.4076 13.0031 18.4054C12.5989 18.3977 12.2021 18.295 11.8448 18.1058C11.4875 17.9166 11.1797 17.646 10.9462 17.316C11.1834 17.3001 11.4159 17.2607 11.6418 17.1998C11.7512 17.1705 11.8474 17.105 11.9147 17.0141C11.9821 16.9231 12.0166 16.812 12.0127 16.6988C12.0088 16.5857 11.9667 16.4772 11.8932 16.3911C11.8197 16.305 11.7192 16.2464 11.6081 16.2248C11.1515 16.1319 10.7288 15.9166 10.3852 15.6021C10.0416 15.2875 9.7899 14.8854 9.65715 14.4388C9.90653 14.5016 10.1625 14.5382 10.4184 14.5466C10.6387 14.5457 10.8431 14.4107 10.9115 14.1988C10.98 13.9869 10.8993 13.7535 10.7128 13.6298C10.2717 13.3359 9.93201 12.913 9.74022 12.4188C9.54844 11.9247 9.51386 11.3834 9.64121 10.8688C11.2697 12.5397 13.4686 13.5347 15.7987 13.6551C15.9637 13.656 16.1081 13.5969 16.2084 13.476C16.3087 13.3551 16.3471 13.1948 16.3115 13.041C16.1833 12.4888 16.2407 11.9098 16.4747 11.3935C16.7087 10.8771 17.1064 10.4524 17.6062 10.1849C18.106 9.91735 18.68 9.82202 19.2395 9.91363C19.7989 10.0052 20.3125 10.2787 20.7009 10.6916C20.7591 10.7537 20.8322 10.8 20.9132 10.8261C20.9942 10.8522 21.0805 10.8572 21.164 10.8407C21.3187 10.8098 21.4715 10.7741 21.6225 10.7329C21.5544 10.7838 21.4837 10.8311 21.4106 10.8744C21.3134 10.934 21.2393 11.0249 21.2007 11.1321C21.1621 11.2394 21.1611 11.3566 21.198 11.4645C21.2349 11.5724 21.3075 11.6644 21.4037 11.7256C21.5 11.7867 21.6141 11.8132 21.7275 11.8007L21.8981 11.7791C21.8041 11.8565 21.7075 11.9306 21.6084 12.0013Z" fill="rgba(93, 93, 97, 1)"/>
</svg>

<svg width="30" height="30" fill="none" xmlns="http://www.w3.org/2000/svg"><path d="M15-.031C6.712-.031-.033 6.71-.033 15c0 8.29 6.745 15.032 15.033 15.032S30.033 23.29 30.033 15C30.033 6.711 23.288-.03 15-.03Zm0 29.062c-7.736 0-14.03-6.294-14.03-14.03C.97 7.263 7.264.97 15 .97S29.03 7.264 29.03 15c0 7.737-6.294 14.031-14.03 14.031Z" fill="rgba(93, 93, 97, 1)"/><path d="M23.244 10.356c.104-.192.19-.394.256-.603a.501.501 0 0 0-.732-.584c-.48.286-1 .498-1.543.631a3.58 3.58 0 0 0-5.978 2.8 8.27 8.27 0 0 1-5.376-2.98.502.502 0 0 0-.821.066 3.575 3.575 0 0 0-.062 3.488.59.59 0 0 0-.2.073.535.535 0 0 0-.248.451c0 1.064.473 2.041 1.236 2.705l-.033.033a.5.5 0 0 0-.1.485 3.578 3.578 0 0 0 2.047 2.218 5.75 5.75 0 0 1-3.193.542.511.511 0 0 0-.531.33.503.503 0 0 0 .201.59 9.226 9.226 0 0 0 4.987 1.463c5.794 0 9.257-4.707 9.257-9.256l-.001-.154a6.674 6.674 0 0 0 1.445-1.556.501.501 0 0 0-.61-.742Zm-1.636 1.645a.502.502 0 0 0-.208.433c.006.123.009.249.009.373 0 4.057-3.087 8.254-8.254 8.254a8.212 8.212 0 0 1-2.707-.457 6.631 6.631 0 0 0 2.855-1.303.502.502 0 0 0-.3-.896 2.58 2.58 0 0 1-2.057-1.089c.237-.016.47-.055.696-.116a.5.5 0 0 0-.034-.975 2.57 2.57 0 0 1-1.95-1.786c.249.063.505.1.76.108.22-.001.425-.136.494-.348a.5.5 0 0 0-.2-.57 2.574 2.574 0 0 1-1.07-2.76 9.266 9.266 0 0 0 6.157 2.786.51.51 0 0 0 .41-.179c.1-.12.138-.281.102-.435a2.578 2.578 0 0 1 4.39-2.35.502.502 0 0 0 .463.15c.155-.031.307-.067.458-.108a2.38 2.38 0 0 1-.211.141.502.502 0 0 0 .316.927l.171-.022c-.094.078-.19.152-.29.222Z" fill="rgba(93, 93, 97, 1)"/></svg>
